icons/desktop/20/palette-20.svg

<svg width="20" height="20" viewBox="0 0 20 20" fill="none" xmlns="http://www.w3.org/2000/svg">
<g clip-path="url(#clip0_8069_32755)">
<path d="M6.7503 7.99971C7.44045 7.99981 8.0001 8.55959 8.0003 9.24971C8.0003 9.94 7.44057 10.4996 6.7503 10.4997C6.05994 10.4997 5.5003 9.94006 5.5003 9.24971C5.5005 8.55953 6.06007 7.99971 6.7503 7.99971Z" fill="black"/>
<path d="M14.2503 7.99971C14.9404 7.99981 15.5001 8.55959 15.5003 9.24971C15.5003 9.94 14.9406 10.4996 14.2503 10.4997C13.5599 10.4997 13.0003 9.94006 13.0003 9.24971C13.0005 8.55953 13.5601 7.99971 14.2503 7.99971Z" fill="black"/>
<path d="M10.514 5.49971C11.1966 5.49971 11.7503 6.05343 11.7503 6.73604V6.76436C11.7502 7.44686 11.1965 7.99971 10.514 7.99971H10.4857C9.80333 7.99946 9.25045 7.4467 9.2503 6.76436V6.73604C9.25033 6.05359 9.80326 5.49996 10.4857 5.49971H10.514Z" fill="black"/>
<path fill-rule="evenodd" clip-rule="evenodd" d="M8.76397 1.15401C14.7232 0.0951325 19.9184 4.61256 19.9983 10.3659C20.0351 12.9952 17.9262 15.1706 15.2835 15.1706H13.971C13.4048 15.1709 13.0485 15.7833 13.3284 16.2761C14.2769 17.9356 13.0786 20.0004 11.1673 20.0007H10.4983C10.4924 20.0006 10.4857 19.9989 10.4798 19.9987C4.85146 19.9869 0.372506 15.0804 1.07159 9.31514C1.56461 5.2539 4.72729 1.87221 8.76397 1.15401ZM18.2493 10.3903C18.1842 5.69668 13.9477 2.0098 9.06964 2.87666C5.79908 3.45876 3.21022 6.22005 2.80889 9.52608C2.23689 14.2437 5.90043 18.2495 10.5003 18.2497C10.5041 18.2497 10.5082 18.2506 10.512 18.2507H11.1673C11.7354 18.2504 12.0901 17.6374 11.8089 17.1452C10.8629 15.4865 12.0603 13.4209 13.971 13.4206H15.2835C16.9366 13.4206 18.2723 12.0569 18.2493 10.3903Z" fill="black"/>
</g>
<defs>
<clipPath id="clip0_8069_32755">
<rect width="20" height="20" fill="white"/>
</clipPath>
</defs>
</svg>

<!-- This Source Code Form is subject to the terms of the Mozilla Public
   - License, v. 2.0. If a copy of the MPL was not distributed with this
   - file, You can obtain one at http://mozilla.org/MPL/2.0/. -->
<svg xmlns="http://www.w3.org/2000/svg" width="20" height="20" fill="context-fill" fill-opacity="context-fill-opacity" viewBox="0 0 20 20">
    <g clip-path="url(#clip0_8069_32755)">
        <path d="M6.75 8a1.25 1.25 0 1 1 0 2.5 1.25 1.25 0 0 1 0-2.5M14.25 8a1.25 1.25 0 1 1 0 2.5 1.25 1.25 0 0 1 0-2.5M10.514 5.5c.683 0 1.236.553 1.236 1.236v.028c0 .683-.553 1.236-1.236 1.236h-.028A1.236 1.236 0 0 1 9.25 6.764v-.028c0-.682.553-1.236 1.236-1.236z" />
        <path fill-rule="evenodd" d="M8.764 1.154a9.507 9.507 0 0 1 11.234 9.212c.037 2.63-2.072 4.805-4.715 4.805h-1.312a.74.74 0 0 0-.643 1.105c.949 1.66-.25 3.724-2.16 3.725h-.67l-.018-.002A9.503 9.503 0 0 1 1.072 9.315c.493-4.061 3.655-7.443 7.692-8.161m9.485 9.236c-.065-4.693-4.301-8.38-9.18-7.513-3.27.582-5.859 3.343-6.26 6.65A7.754 7.754 0 0 0 10.5 18.25h.667a.74.74 0 0 0 .642-1.105c-.946-1.658.251-3.724 2.162-3.724h1.313c1.653 0 2.988-1.364 2.965-3.03" clip-rule="evenodd" />
    </g>
</svg>
